X:1023
T:Mrs Dundas of Arniston
R:reel
C:William Gow (1751-1791), Scotland
H:Originally in the key of C
D:Sharon Shannon: Out the Gap
Z:id:hn-reel-1023
M:C|
L:1/8
K:D
d3f ecAc | dBGB AFDF | G3B AFDF |1 GEDC D2A2 :|2 GEDC D2g2 ||
|: fafd ceac | BdgB AdfA | GBeG FAdf |1 gedc d2g2 :|2 gedc dABc ||

